; generated by PrusaSlicer 2.5.0+win64 on 2023-02-06 at 22:03:25 UTC

; 

; external perimeters extrusion width = 0.40mm
; perimeters extrusion width = 0.40mm
; infill extrusion width = 0.80mm
; solid infill extrusion width = 0.40mm
; top infill extrusion width = 0.40mm
; first layer extrusion width = 0.30mm

M73 P0 R3
M73 Q0 S3
M107
M190 S95 ; set bed temperature and wait for it to be reached
;TYPE:Custom
M109 S240

G92 E0 ;zero the extruded length
G1 F200 E-4 ;extrude 6 mm of feed stock
G92 E0 ;zero the extruded length again

M109 S240
G28 ; home all axes
;G1 Z5 F5000 ; lift nozzle


G92 E0 ;zero the extruded length
G1 F200 E8 ;extrude 6 mm of feed stock
G92 E0 ;zero the extruded length again
G1 Y10 F1500
G92 E0 ;zero the extruded length
M73 P1 R3
M73 Q1 S3
G1 F200 E3 ;extrude 6 mm of feed stock
G92 E0 ;zero the extruded length again
G21 ; set units to millimeters
G90 ; use absolute coordinates
M82 ; use absolute distances for extrusion
G92 E0
; Filament gcode
M107
;LAYER_CHANGE
;Z:0.15
;HEIGHT:0.15
G1 Z.15 F7200
M73 P2 R3
M73 Q2 S3
G1 E-0.1 F2700
G92 E0
G1 X138.075 Y168.012 F7200
G1 E2 F2700
;TYPE:Skirt/Brim
;WIDTH:0.3
M73 P3 R3
M73 Q3 S3
G1 F1500
G1 X151.708 Y158.276 E2.2798
G1 X152.422 Y157.891 E2.29335
G1 X153.345 Y157.554 E2.30975
G1 X154.308 Y157.364 E2.32615
G1 X155.133 Y157.323 E2.33994
G1 X155.941 Y157.389 E2.35349
G1 X156.899 Y157.607 E2.36989
G1 X165.891 Y160.74 E2.52893
G1 X167.207 Y161.413 E2.55362
G1 X168.319 Y162.366 E2.57807
M73 P4 R3
G1 X169.019 Y163.281 E2.59731
G1 X169.535 Y164.295 E2.61632
G1 X169.89 Y165.554 E2.63817
G1 X169.98 Y166.703 E2.65741
G1 X169.862 Y167.835 E2.67642
M73 Q4 S3
G1 X169.475 Y169.085 E2.69827
G1 X168.926 Y170.097 E2.71751
G1 X168.09 Y171.104 E2.73936
G1 X159.654 Y177.487 E2.91604
G1 X158.423 Y178.099 E2.939
G1 X157.179 Y178.364 E2.96023
G1 X149.714 Y178.385 E3.08492
G1 X148.743 Y178.273 E3.10124
G1 X139.422 Y175.042 E3.26599
G1 X138.636 Y174.622 E3.28089
G1 X137.953 Y174.046 E3.2958
G1 X137.406 Y173.342 E3.31069
G1 X137.078 Y172.698 E3.32275
G1 X136.83 Y171.842 E3.33765
G1 X136.764 Y171.004 E3.35168
G1 X136.84 Y170.286 E3.36373
G1 X137.098 Y169.433 E3.37863
G1 X137.529 Y168.651 E3.39353
G1 X138.036 Y168.058 E3.40656
M73 P5 R3
G1 E1.40656 F2700
G92 E0
G1 X153.824 Y165.648 F7200
G1 E2 F2700
;TYPE:Perimeter
;WIDTH:0.300641
M73 Q5 S3
G1 F1500
G1 X153.394 Y165.622 E2.0072
;WIDTH:0.299999
G1 X152.824 Y165.635 E2.01672
G1 X152.258 Y165.737 E2.02633
G1 X151.73 Y165.925 E2.03569
G1 X151.256 Y166.17 E2.0446
G1 X150.792 Y166.509 E2.0542
G1 X150.342 Y166.971 E2.06497
G1 X150.07 Y167.393 E2.07335
G1 X149.793 Y167.88 E2.08271
G1 X149.559 Y168.567 E2.09483
G1 X149.413 Y169.259 E2.10665
G1 X149.281 Y170.478 E2.12712
G1 X149.088 Y170.857 E2.13424
G1 X148.799 Y171.146 E2.14106
G1 X148.427 Y171.336 E2.14804
G1 X148.073 Y171.401 E2.15404
G1 X141.076 Y171.404 E2.2709
G1 X140.831 Y171.316 E2.27526
G1 X140.725 Y171.1 E2.27927
G1 X140.815 Y170.873 E2.28335
G1 X141.034 Y170.777 E2.28735
G1 X143.301 Y170.768 E2.32522
G1 X144.272 Y170.637 E2.34158
G1 X144.857 Y170.473 E2.35172
G1 X145.421 Y170.248 E2.36187
G1 X145.958 Y169.963 E2.37202
G1 X146.475 Y169.612 E2.38245
G1 X147.076 Y169.082 E2.39584
G1 X147.378 Y168.744 E2.40341
G1 X147.702 Y168.305 E2.41252
G1 X148.03 Y167.797 E2.42263
G1 X148.647 Y166.527 E2.4462
G1 X149.071 Y165.857 E2.45945
G1 X149.729 Y165.067 E2.47662
G1 X150.336 Y164.496 E2.49053
G1 X150.796 Y164.135 E2.5003
G1 X151.39 Y163.748 E2.51213
G1 X151.906 Y163.462 E2.52199
G1 X152.469 Y163.039 E2.53376
;WIDTH:0.302305
G1 X152.84 Y162.659 E2.5427
G1 X152.685 Y163.164 E2.5516
;WIDTH:0.299999
G1 X152.649 Y163.645 E2.55965
G1 X152.712 Y164.139 E2.56797
G1 X152.877 Y164.609 E2.57629
G1 X153.051 Y164.903 E2.582
G1 X153.414 Y165.343 E2.59154
;WIDTH:0.300641
G1 X153.776 Y165.612 E2.59908
G1 E.59908 F2700
G92 E0
G1 X156.342 Y165.303 F7200
G1 E2 F2700
;WIDTH:0.399135
G1 F1500
M73 P6 R3
G1 X155.931 Y165.556 E2.01105
;WIDTH:0.400743
G1 X155.365 Y165.723 E2.02459
;WIDTH:0.401621
G1 X154.916 Y165.746 E2.03497
G1 X154.584 Y165.705 E2.04267
;WIDTH:0.410385
G1 X154.22 Y165.604 E2.05158
G1 X154.029 Y165.466 E2.05714
;WIDTH:0.37359
G1 X153.838 Y165.328 E2.06215
;WIDTH:0.336795
G1 X153.647 Y165.19 E2.06663
;WIDTH:0.299999
G1 X153.357 Y164.885 E2.07366
G1 X153.127 Y164.513 E2.08096
G1 X152.977 Y164.097 E2.08835
G1 X152.916 Y163.659 E2.09574
G1 X152.946 Y163.227 E2.10296
;WIDTH:0.34895
G1 X153.04 Y162.888 E2.10992
;WIDTH:0.3979
G1 X153.133 Y162.548 E2.11796
G1 X153.441 Y162.124 E2.1299
;WIDTH:0.391434
G1 X153.799 Y161.815 E2.14051
;WIDTH:0.396573
G1 X154.194 Y161.594 E2.15079
M73 Q6 S3
G1 X154.616 Y161.466 E2.16081
;WIDTH:0.399699
G1 X155.009 Y161.427 E2.16986
;WIDTH:0.400212
G1 X155.594 Y161.506 E2.18341
G1 X156.082 Y161.699 E2.19546
;WIDTH:0.39304
G1 X156.51 Y162.012 E2.20738
;WIDTH:0.392762
G1 X156.806 Y162.358 E2.21762
;WIDTH:0.390796
G1 X157.021 Y162.743 E2.22748
;WIDTH:0.392174
G1 X157.112 Y163.001 E2.23363
;WIDTH:0.392937
G1 X157.193 Y163.523 E2.24552
;WIDTH:0.398581
G1 X157.147 Y164.029 E2.25712
G1 X156.953 Y164.582 E2.27051
;WIDTH:0.398219
G1 X156.669 Y165.002 E2.28207
;WIDTH:0.399135
G1 X156.386 Y165.262 E2.29088
G1 X156.103 Y165.087 F7200
;TYPE:External perimeter
;WIDTH:0.299999
G1 F1500
G1 X155.817 Y165.26 E2.29646
G1 X155.496 Y165.38 E2.30218
G1 X155.114 Y165.437 E2.30863
G1 X154.666 Y165.398 E2.31615
G1 X154.359 Y165.313 E2.32147
G1 X154.058 Y165.158 E2.32712
G1 X153.786 Y164.957 E2.33277
G1 X153.5 Y164.612 E2.34025
G1 X153.288 Y164.186 E2.3482
G1 X153.184 Y163.673 E2.35695
G1 X153.206 Y163.29 E2.36335
G1 X153.296 Y162.96 E2.36906
G1 X153.437 Y162.653 E2.3747
G1 X153.666 Y162.342 E2.38116
G1 X153.955 Y162.085 E2.38762
G1 X154.292 Y161.895 E2.39407
G1 X154.657 Y161.778 E2.40047
G1 X154.992 Y161.744 E2.4061
G1 X155.334 Y161.765 E2.41183
G1 X155.704 Y161.867 E2.41822
G1 X155.968 Y161.995 E2.42313
G1 X156.319 Y162.269 E2.43057
G1 X156.536 Y162.514 E2.43603
G1 X156.816 Y163.106 E2.44696
G1 X156.879 Y163.507 E2.45375
G1 X156.841 Y163.947 E2.46113
G1 X156.667 Y164.446 E2.46995
G1 X156.399 Y164.835 E2.47784
G1 X156.152 Y165.053 E2.48334
G1 X156.144 Y165.419 F7200
G1 E.48334 F2700
G92 E0
G1 X153.782 Y165.929 F7200
G1 E2 F2700
;TYPE:Perimeter
;WIDTH:0.37359
G1 F1500
G1 X153.61 Y165.912 E2.00369
;WIDTH:0.336795
G1 X153.368 Y165.889 E2.0083
;WIDTH:0.299999
G1 X152.839 Y165.902 E2.01714
G1 X152.316 Y165.999 E2.02601
G1 X151.914 Y166.133 E2.0331
G1 X151.41 Y166.389 E2.04254
G1 X150.984 Y166.696 E2.05131
G1 X150.535 Y167.157 E2.06206
G1 X150.045 Y167.973 E2.07795
G1 X149.856 Y168.488 E2.08711
G1 X149.721 Y169.02 E2.09628
G1 X149.64 Y169.562 E2.10544
G1 X149.611 Y170.113 E2.11465
G1 X149.536 Y170.568 E2.12235
G1 X149.307 Y171.017 E2.13077
G1 X148.958 Y171.366 E2.13901
G1 X148.514 Y171.592 E2.14734
G1 X148.098 Y171.669 E2.1544
G1 X141.058 Y171.672 E2.27197
G1 X140.808 Y171.605 E2.27629
G1 X140.574 Y171.442 E2.28107
G1 X140.459 Y171.134 E2.28655
G1 X140.526 Y170.809 E2.2921
G1 X140.683 Y170.629 E2.29609
G1 X141.012 Y170.509 E2.30194
M73 P7 R3
G1 X143.3 Y170.5 E2.34015
G1 X144.202 Y170.379 E2.35534
G1 X144.759 Y170.224 E2.365
G1 X145.297 Y170.01 E2.37467
G1 X145.809 Y169.74 E2.38434
G1 X146.298 Y169.411 E2.39418
G1 X146.899 Y168.881 E2.40756
G1 X147.176 Y168.569 E2.41454
G1 X147.479 Y168.158 E2.42306
G1 X147.79 Y167.679 E2.4326
G1 X148.42 Y166.386 E2.45662
G1 X148.86 Y165.691 E2.47035
M73 Q7 S3
G1 X149.537 Y164.88 E2.488
G1 X150.165 Y164.29 E2.5024
G1 X150.835 Y163.788 E2.51637
G1 X151.261 Y163.513 E2.52484
G1 X151.754 Y163.241 E2.53424
G1 X152.285 Y162.844 E2.54532
;WIDTH:0.34895
G1 X152.541 Y162.597 E2.55235
;WIDTH:0.3979
G1 X152.796 Y162.349 E2.56047
;WIDTH:0.401062
G1 X153.07 Y161.992 E2.57082
G1 X153.46 Y161.611 E2.58336
;WIDTH:0.399146
G1 X153.925 Y161.324 E2.59587
;WIDTH:0.400141
G1 X154.398 Y161.141 E2.60749
G1 X154.907 Y161.063 E2.61932
;WIDTH:0.396107
G1 X155.407 Y161.104 E2.63069
;WIDTH:0.3886
G1 X155.876 Y161.22 E2.64144
;WIDTH:0.39314
G1 X156.369 Y161.452 E2.65371
;WIDTH:0.398674
G1 X156.837 Y161.823 E2.66735
;WIDTH:0.400701
G1 X157.234 Y162.353 E2.68256
G1 X157.459 Y162.909 E2.69636
;WIDTH:0.395531
G1 X157.556 Y163.481 E2.70951
G1 X157.553 Y163.547 E2.711
;WIDTH:0.398581
G1 X157.497 Y164.138 E2.72456
G1 X157.237 Y164.817 E2.74118
;WIDTH:0.393874
G1 X156.94 Y165.238 E2.75281
G1 X156.574 Y165.586 E2.76418
;WIDTH:0.395287
G1 X156.127 Y165.865 E2.77612
G1 X155.624 Y166.035 E2.78815
;WIDTH:0.390089
G1 X155.165 Y166.107 E2.79852
;WIDTH:0.393987
G1 X154.659 Y166.089 E2.80994
;WIDTH:0.410385
G1 X154.093 Y165.959 E2.82364
G1 X153.851 Y165.935 E2.82937
;WIDTH:0.37359
G1 X153.842 Y165.934 E2.82957
G1 X153.741 Y166.206 F7200
;TYPE:External perimeter
;WIDTH:0.299999
G1 F1500
G1 X153.292 Y166.156 E2.83711
G1 X152.636 Y166.21 E2.84812
G1 X152.048 Y166.367 E2.85829
G1 X151.585 Y166.593 E2.86689
G1 X151.176 Y166.883 E2.87526
G1 X150.707 Y167.369 E2.88654
G1 X150.296 Y168.066 E2.90005
G1 X150.115 Y168.555 E2.90876
G1 X149.985 Y169.06 E2.91747
G1 X149.907 Y169.576 E2.92618
G1 X149.878 Y170.134 E2.93552
G1 X149.791 Y170.658 E2.94439
G1 X149.526 Y171.176 E2.9541
G1 X149.118 Y171.585 E2.96376
G1 X148.601 Y171.848 E2.97345
G1 X148.123 Y171.937 E2.98157
G1 X141.097 Y171.94 E3.09891
G1 X140.817 Y171.91 E3.10362
G1 X140.587 Y171.793 E3.10791
G1 X140.348 Y171.592 E3.11313
G1 X140.243 Y171.356 E3.11745
G1 X140.184 Y171.051 E3.12265
G1 X140.278 Y170.698 E3.12874
G1 X140.423 Y170.506 E3.13276
G1 X140.678 Y170.335 E3.13789
G1 X140.991 Y170.241 E3.14334
G1 X143.299 Y170.233 E3.1819
G1 X144.131 Y170.121 E3.19591
G1 X144.661 Y169.975 E3.2051
G1 X145.173 Y169.773 E3.21429
G1 X145.661 Y169.518 E3.22348
M73 P8 R3
G1 X146.121 Y169.209 E3.23273
G1 X146.722 Y168.68 E3.24611
G1 X146.974 Y168.393 E3.25249
G1 X147.255 Y168.011 E3.26041
G1 X147.549 Y167.561 E3.26938
G1 X148.153 Y166.307 E3.29263
G1 X148.601 Y165.587 E3.30679
G1 X149.124 Y164.92 E3.32094
G1 X149.716 Y164.313 E3.3351
G1 X150.37 Y163.774 E3.34926
G1 X150.908 Y163.42 E3.36001
G1 X151.986 Y162.756 E3.38117
G1 X152.357 Y162.405 E3.38969
G1 X152.821 Y161.791 E3.40254
G1 X153.203 Y161.412 E3.41153
M73 Q8 S3
G1 X153.456 Y161.242 E3.41662
G1 X153.973 Y160.95 E3.42653
G1 X154.504 Y160.798 E3.43576
G1 X155.041 Y160.74 E3.44478
G1 X155.774 Y160.84 E3.45714
G1 X156.46 Y161.125 E3.46955
G1 X157.048 Y161.578 E3.48195
G1 X157.501 Y162.169 E3.49438
G1 X157.719 Y162.663 E3.50339
G1 X157.788 Y162.964 E3.50856
G1 X157.871 Y163.506 E3.51771
G1 X157.818 Y164.181 E3.52903
G1 X157.57 Y164.883 E3.54146
G1 X157.248 Y165.379 E3.55133
G1 X156.707 Y165.894 E3.56379
G1 X156.196 Y166.19 E3.57367
G1 X155.481 Y166.403 E3.58613
G1 X154.933 Y166.433 E3.59529
G1 X154.443 Y166.378 E3.60353
G1 X153.8 Y166.219 E3.61459
G1 X153.591 Y165.835 F7200
G1 E1.61459 F2700
G92 E0
G1 X152.582 Y163.559 F7200
G1 E2 F2700
;TYPE:Solid infill
;WIDTH:0.304114
G1 F1500
G1 X152.393 Y163.37 E2.00454
G1 X152.165 Y163.527 E2.00923
G1 X152.459 Y163.82 E2.01626
G1 X152.55 Y164.297 E2.02449
G1 X151.931 Y163.677 E2.03935
G1 X151.683 Y163.814 E2.04415
G1 X152.903 Y165.034 E2.0734
G1 X153.059 Y165.261 E2.07807
G1 X153.223 Y165.427 E2.08203
G1 X152.924 Y165.439 E2.08711
G1 X151.438 Y163.953 E2.12275
G1 X151.206 Y164.106 E2.12746
G1 X152.573 Y165.473 E2.16024
G1 X152.25 Y165.535 E2.16581
G1 X150.974 Y164.258 E2.19642
G1 X150.748 Y164.417 E2.20111
G1 X151.958 Y165.627 E2.23014
G1 X151.675 Y165.728 E2.23524
G1 X150.537 Y164.591 E2.26253
G1 X150.326 Y164.764 E2.26716
G1 X151.416 Y165.854 E2.2933
G1 X151.171 Y165.994 E2.29808
G1 X150.125 Y164.948 E2.32315
G1 X149.936 Y165.143 E2.32777
M73 P9 R3
G1 X150.942 Y166.149 E2.35189
G1 X150.721 Y166.313 E2.35655
G1 X149.746 Y165.338 E2.37994
G1 X149.569 Y165.546 E2.38457
G1 X150.528 Y166.504 E2.40756
G1 X150.335 Y166.696 E2.41217
G1 X149.4 Y165.761 E2.43457
G1 X149.231 Y165.977 E2.43922
G1 X150.148 Y166.894 E2.4612
G1 X149.996 Y167.126 E2.46591
G1 X149.081 Y166.211 E2.48786
G1 X148.933 Y166.448 E2.4926
M73 Q9 S3
G1 X149.853 Y167.368 E2.51466
G1 X149.711 Y167.61 E2.51943
G1 X148.788 Y166.687 E2.54156
G1 X148.663 Y166.946 E2.54645
G1 X149.586 Y167.87 E2.56859
G1 X149.481 Y168.149 E2.57365
G1 X148.537 Y167.206 E2.59627
G1 X148.412 Y167.465 E2.60116
G1 X149.388 Y168.441 E2.62456
G1 X149.309 Y168.747 E2.62991
G1 X148.287 Y167.725 E2.65442
G1 X148.155 Y167.977 E2.65924
G1 X149.241 Y169.063 E2.68529
G1 X149.192 Y169.398 E2.69104
G1 X148.003 Y168.209 E2.71955
G1 X147.851 Y168.442 E2.72426
G1 X149.161 Y169.752 E2.75567
G1 X149.142 Y170.117 E2.76188
G1 X147.697 Y168.673 E2.79652
G1 X147.519 Y168.879 E2.80115
G1 X149.077 Y170.437 E2.8385
G1 X148.947 Y170.692 E2.84334
G1 X147.341 Y169.086 E2.88185
G1 X147.152 Y169.281 E2.88646
G1 X148.766 Y170.895 E2.92516
G1 X148.679 Y170.982 E2.92724
G1 X148.539 Y171.053 E2.9299
G1 X146.946 Y169.46 E2.96811
G1 X146.74 Y169.639 E2.97273
G1 X148.264 Y171.162 E3.00926
G1 X148.055 Y171.201 E3.01286
G1 X147.918 Y171.201 E3.01519
G1 X146.534 Y169.817 E3.04836
G1 X146.304 Y169.972 E3.05306
G1 X147.533 Y171.201 E3.08254
G1 X147.149 Y171.201 E3.08906
G1 X146.072 Y170.124 E3.11489
G1 X145.825 Y170.262 E3.11968
M73 P10 R3
G1 X146.764 Y171.201 E3.14221
G1 X146.38 Y171.201 E3.14872
G1 X145.571 Y170.392 E3.16813
G1 X145.306 Y170.512 E3.17306
G1 X145.996 Y171.201 E3.1896
G1 X145.611 Y171.202 E3.19611
G1 X145.028 Y170.619 E3.2101
G1 X144.742 Y170.717 E3.21523
G1 X145.227 Y171.202 E3.22685
G1 X144.842 Y171.202 E3.23337
G1 X144.44 Y170.8 E3.24301
G1 X144.116 Y170.86 E3.24861
G1 X144.458 Y171.202 E3.25681
G1 X144.074 Y171.202 E3.26333
G1 X143.777 Y170.906 E3.27044
M73 Q10 S3
G1 X143.438 Y170.951 E3.27624
G1 X143.689 Y171.202 E3.28226
G1 X143.305 Y171.202 E3.28877
G1 X143.072 Y170.97 E3.29435
G1 X142.689 Y170.971 E3.30085
G1 X142.92 Y171.203 E3.30639
G1 X142.536 Y171.203 E3.31291
G1 X142.306 Y170.973 E3.31843
G1 X141.923 Y170.974 E3.32493
G1 X142.152 Y171.203 E3.33041
G1 X141.767 Y171.203 E3.33693
G1 X141.54 Y170.976 E3.34238
G1 X141.157 Y170.977 E3.34888
G1 X141.503 Y171.324 E3.3572
G1 E1.3572 F2700
G92 E0
G1 X162.506 Y168.675 F7200
G1 E2 F2700
;TYPE:Perimeter
;WIDTH:0.300641
G1 F1500
G1 X162.077 Y168.649 E2.0072
;WIDTH:0.299999
G1 X161.507 Y168.662 E2.01672
G1 X160.941 Y168.765 E2.02633
G1 X160.413 Y168.952 E2.03569
G1 X159.938 Y169.197 E2.0446
G1 X159.475 Y169.536 E2.0542
G1 X159.025 Y169.998 E2.06497
G1 X158.753 Y170.42 E2.07335
G1 X158.476 Y170.907 E2.08271
G1 X158.242 Y171.594 E2.09483
G1 X158.096 Y172.286 E2.10665
G1 X157.964 Y173.505 E2.12712
G1 X157.77 Y173.884 E2.13424
G1 X157.481 Y174.173 E2.14106
G1 X157.109 Y174.363 E2.14804
G1 X156.756 Y174.428 E2.15404
G1 X149.759 Y174.431 E2.2709
G1 X149.513 Y174.343 E2.27526
G1 X149.408 Y174.127 E2.27927
G1 X149.498 Y173.9 E2.28335
G1 X149.717 Y173.804 E2.28735
G1 X151.984 Y173.795 E2.32522
G1 X152.955 Y173.664 E2.34158
G1 X153.54 Y173.5 E2.35172
G1 X154.104 Y173.275 E2.36187
G1 X154.641 Y172.99 E2.37202
G1 X155.157 Y172.639 E2.38245
M73 P11 R3
G1 X155.759 Y172.109 E2.39584
G1 X156.061 Y171.771 E2.40341
G1 X156.385 Y171.332 E2.41252
G1 X156.713 Y170.824 E2.42263
G1 X157.329 Y169.554 E2.4462
G1 X157.753 Y168.884 E2.45945
G1 X158.412 Y168.094 E2.47662
G1 X159.018 Y167.523 E2.49053
G1 X159.478 Y167.162 E2.5003
G1 X160.072 Y166.775 E2.51213
G1 X160.588 Y166.489 E2.52199
G1 X161.152 Y166.066 E2.53376
;WIDTH:0.302305
G1 X161.523 Y165.686 E2.5427
G1 X161.368 Y166.191 E2.5516
;WIDTH:0.299999
G1 X161.331 Y166.672 E2.55965
M73 Q11 S3
G1 X161.395 Y167.166 E2.56797
G1 X161.56 Y167.636 E2.57629
G1 X161.733 Y167.93 E2.582
G1 X162.097 Y168.37 E2.59154
;WIDTH:0.300641
G1 X162.458 Y168.639 E2.59908
G1 E.59908 F2700
G92 E0
G1 X165.024 Y168.33 F7200
G1 E2 F2700
;WIDTH:0.399135
G1 F1500
G1 X164.613 Y168.583 E2.01105
;WIDTH:0.400743
G1 X164.048 Y168.75 E2.02459
;WIDTH:0.401621
G1 X163.598 Y168.773 E2.03497
G1 X163.266 Y168.732 E2.04267
;WIDTH:0.410385
G1 X162.902 Y168.631 E2.05158
G1 X162.711 Y168.493 E2.05714
;WIDTH:0.37359
G1 X162.52 Y168.355 E2.06215
;WIDTH:0.336795
G1 X162.329 Y168.217 E2.06663
;WIDTH:0.299999
G1 X162.04 Y167.912 E2.07366
G1 X161.81 Y167.54 E2.08096
G1 X161.659 Y167.124 E2.08835
G1 X161.599 Y166.686 E2.09574
